X:1
T:Homeward Bound
T:Homeward Bound
T:Charles Hutchinson Gabriel
T:James Rowe, 1902
T:Public Domain Courtesy of the Cyber Hymnal™
C:Charles Hutchinson Gabriel
Z:Public Domain
Z:Courtesy of the Cyber Hymnal™
%%score ( 1 2 ) ( 3 4 )
L:1/8
Q:1/4=110
M:4/4
K:Ab
V:1 treble 
V:2 treble 
V:3 bass 
V:4 bass 
V:1
 [CE][CE] | [CA]2 [CA]2 [CA]2 [Ec]2 | [FA]2 [DF]4 [FA][DA] | [CE]2 [CE]2 [EA]2 [Ec]2 | %4
w: 1.~From my|Fa- ther’s home I|wan- dered, For my|feet were prone to|
w: 2.~I was|lost in sin’s dark|val- ley, Fol- low-|ing the down- ward|
w: 3.~I was|sin- stained, I was|weep- ing, But my|stains are washed a-|
 [EB]6 [DE][DE] | [CA]2 [CA]2 [CA]2 [Ec]2 | [FA]2 [DF]4 [DA][DF] | [CE]3 [Ec] [Ec]2 [DB]2 | %8
w: stray, But my|Sav- ior sought and|found me, And I’m|home- ward bound to-|
w: way, But my|Sav- ior saw my|dan- ger, And I’m|home- ward bound to-|
w: way; And, re-|joic- ing in my|Sav- ior, I am|home- ward bound to-|
 [CA]6 z2 ||"^Refrain" e6 c2 | e6 [_Gc]2 | d3 d A2 d2 | c6 [Ec]2 | e6 [Ec]2 | [Ee]4 [Fd]2 [Fd]2 | %15
w: day.|||||||
w: day.|Home- ward|bound, I’m|home- ward bound to-|day; I’m|home- ward|bound, Prais- ing|
w: day.|||||||
 [Ec]3 [EA] [EB]2 [EB]2 | [EA]6 |] %17
w: ||
w: Je- sus all the|way.|
w: ||
V:2
 x2 | x8 | x8 | x8 | x8 | x8 | x8 | x8 | x8 || (A2 A2 A2) x2 | (A2 A2 A2) x2 | F4 F4 | %12
 (E2 E2 E2) x2 | (A2 A2 A2) x2 | x8 | x8 | x6 |] %17
V:3
 [A,,A,][A,,A,] | [A,,A,]2 [A,,A,]2 [A,,A,]2 [A,,A,]2 | [D,A,]2 [D,A,]4 [D,A,][F,A,] | %3
w: ~ ~|~ ~ ~ ~|~ ~ ~ ~|
 A,2 A,2 [A,C]2 A,2 | [E,G,]6 [E,G,][E,G,] | [A,,A,]2 [A,,A,]2 [A,,A,]2 [A,,A,]2 | %6
w: ~ ~ ~ ~|~ ~ ~|~ ~ ~ ~|
 [D,A,]2 [D,A,]4 [D,F,][D,A,] | [E,A,]3 [E,A,] [E,A,]2 [E,G,]2 | [A,,A,]6 z2 || %9
w: ~ ~ ~ ~|~ ~ ~ ~|~|
 [A,C]2 [A,C]2 [A,C]2 z2 | [A,C]2 [A,C]2 [A,C]2 A,2 | [D,A,]4 [D,A,]4 | %12
w: Home- ward bound,|home- ward bound, I’m|home- ward|
 [A,,A,]2 [A,,A,]2 [A,,A,]2 A,2 | [A,C]2 [A,C]2 [A,C]2 A,2 | [C,A,]4 [D,A,]2 [D,A,]2 | %15
w: bound to- day; I’m|home- ward bound to-|day, * *|
 [E,A,]3 [E,C] [E,D]2 [E,D]2 | [A,,C]6 |] %17
w: ||
V:4
 x2 | x8 | x8 | A,2 A,2 A,2 x2 | x8 | x8 | x8 | x8 | x8 || x8 | x6 A,2 | x8 | x6 A,2 | x6 A,2 | %14
 x8 | x8 | x6 |] %17

